!!!OTL: Die dienende Schwester Es wohnt ein Graf von eim andern Reich,
!!!ARE: Europa, Suedosteuropa, Jugoslavija, Batschka
!!!YOR: 4, S. 104
!!    ????
!!!SCT: Q0075F
!!!YEM: Copyright 1995, estate of Helmut Schaffrath.
**kern
*ICvox
*Ivox
*M2/4
*k[b-]
*F:
{8cc
=1
8.cc
16b-
8a
16cc
16cc
=2
8.b-
16a
8.g}
{16a
=3
8.b-
16a
8.g
16f
=4
8.e
16d
8c}
{8e
=5
4f
4c
=6
8.cc
16dd
8cc
8b-
=7
4a
4g
=8
4f
8r}
==
!!!AGN: Ballade, Adelige als Dienstmagd, Tod; Kinder - Spiel, Tanz
!! Takt in der letzten Zeile traegt die Anmerkung "frei" .
!!!ONB: ESAC (Essen Associative Code) Database: BALLADE
!!!AMT: simple duple
!!!AIN: vox
!!!EED: Helmut Schaffrath
!!!EEV: 1.0
*-
